icons/tableau.svg

<?xml version="1.0" encoding="UTF-8"?>
<svg width="512px" height="109px" viewBox="0 0 512 109" version="1.1" xmlns="http://www.w3.org/2000/svg" xmlns:xlink="http://www.w3.org/1999/xlink" preserveAspectRatio="xMidYMid">
    <g>
        <g>
            <polygon fill="#7099A6" points="53.6434056 5.018188 53.6434056 10.0568584 44.6311496 10.0568584 44.6311496 13.3340424 53.6434056 13.3340424 53.6434056 23.3704184 57.1663784 23.3704184 57.1663784 13.3340424 66.4039408 13.3340424 66.4039408 10.0568584 57.1663784 10.0568584 57.1663784 0 53.6434056 0"></polygon>
            <polygon fill="#EB912C" points="24.1897144 17.7992056 24.1897144 25.1114224 10.548436 25.1114224 10.548436 29.69948 24.1897144 29.69948 24.1897144 44.54922 29.2488672 44.54922 29.2488672 29.69948 43.0949696 29.69948 43.0949696 25.1114224 29.2488672 25.1114224 29.2488672 10.4869888 24.1897144 10.4869888"></polygon>
            <polygon fill="#59879B" points="81.3560928 17.7992056 81.3560928 25.1114224 67.7148144 25.1114224 67.7148144 29.9247864 81.3560928 29.9247864 81.3560928 44.54922 86.6200696 44.54922 86.6200696 29.9247864 100.261348 29.9247864 100.261348 25.1114224 86.6200696 25.1114224 86.6200696 10.4869888 81.3560928 10.4869888"></polygon>
            <polygon fill="#E8762C" points="52.332532 42.705804 52.332532 50.898764 37.1550736 50.898764 37.1550736 57.0025192 52.332532 57.0025192 52.332532 73.3884392 58.477252 73.3884392 58.477252 57.0025192 73.6547104 57.0025192 73.6547104 50.898764 58.477252 50.898764 58.477252 34.512844 52.332532 34.512844"></polygon>
            <polygon fill="#5B6591" points="96.9636816 46.8432488 96.9636816 51.9843312 87.7261192 51.9843312 87.7261192 56.1422584 96.9636816 56.1422584 96.9636816 66.4039408 101.572222 66.4039408 101.572222 56.1422584 110.809784 56.1422584 110.809784 51.9843312 101.572222 51.9843312 101.572222 41.7226488 96.9636816 41.7226488"></polygon>
            <polygon fill="#7099A6" points="9.012256 47.2938616 9.012256 52.2096376 0 52.2096376 0 55.6916456 9.012256 55.6916456 9.012256 65.5231976 12.5352288 65.5231976 12.5352288 55.6916456 21.7727912 55.3639272 21.7727912 52.2096376 12.5352288 52.2096376 12.5352288 42.3780856 9.012256 42.3780856"></polygon>
            <polygon fill="#C72035" points="24.1897144 70.4389736 24.1897144 77.7511904 10.548436 77.7511904 10.548436 82.5645544 24.1897144 82.5645544 24.1897144 97.188988 29.4536912 97.188988 29.4536912 82.5645544 43.0949696 82.5645544 43.0949696 77.7511904 29.4536912 77.7511904 29.4536912 63.1267568 24.1897144 63.1267568"></polygon>
            <polygon fill="#1F447E" points="81.3560928 70.4389736 81.3560928 77.7511904 67.7148144 77.7511904 67.7148144 82.339248 81.3560928 82.339248 81.3560928 97.188988 86.6200696 97.188988 86.6200696 82.339248 100.261348 82.339248 100.261348 77.7511904 86.6200696 77.7511904 86.6200696 63.1267568 81.3560928 63.1267568"></polygon>
            <polygon fill="#5B6591" points="53.2132752 89.0165104 53.2132752 94.1371104 43.9757128 94.1371104 43.9757128 98.2950376 53.2132752 98.2950376 53.2132752 108.55672 57.8218152 108.55672 57.8218152 98.2950376 67.0593776 98.2950376 67.0593776 94.1371104 57.8218152 94.1371104 57.8218152 83.875428 53.2132752 83.875428"></polygon>
        </g>
        <path d="M337.263198,21.8342384 L337.263198,84.1007344 L330.237735,84.1007344 L330.237735,21.8342384 L337.263198,21.8342384 Z M162.691703,30.5802232 L162.691703,50.4481512 L181.596958,50.4481512 L181.596958,57.0025192 L162.691703,57.0025192 L162.691703,78.4066272 L155.66624,78.4066272 L155.66624,57.0025192 L136.760985,57.0025192 L136.760985,50.4481512 L155.66624,50.4481512 L155.66624,30.5802232 L162.691703,30.5802232 Z M382.570267,44.2215016 C383.840176,44.2829488 385.458286,44.4877728 386.195652,44.6721144 C386.912536,44.856456 388.100515,45.2865864 388.817399,45.6347872 C389.554766,45.9625056 390.742745,46.6793896 391.459629,47.2324144 C392.196995,47.7854392 393.221115,48.8095592 393.753658,49.5059608 C394.2862,50.2023624 395.044049,51.4722712 395.453697,52.3120496 C395.863345,53.151828 396.395887,54.6265608 396.641676,55.5892336 C396.887465,56.5519064 397.174218,58.4977344 397.399525,62.47132 L373.107398,62.47132 L373.250775,63.290616 C373.312222,63.7412288 373.578494,64.7039016 373.783318,65.4207856 C374.008624,66.1376696 374.582131,67.2642016 375.032744,67.899156 C375.483357,68.5341104 376.159276,69.2919592 376.507477,69.5582304 C376.87616,69.8245016 377.613526,70.2751144 378.166551,70.561868 C378.699094,70.8281392 379.641284,71.17634 380.255756,71.3401992 C380.870228,71.5040584 382.50882,71.6474352 383.983553,71.6474352 C385.437803,71.6474352 387.527008,71.5040584 388.612575,71.3197168 C389.698142,71.1353752 391.234322,70.766692 392.012654,70.5209032 C392.790985,70.2751144 393.815105,69.8859488 394.265718,69.6606424 C394.71633,69.435336 395.187426,69.230512 395.31032,69.230512 C395.447596,69.230512 395.528542,70.3758667 395.535183,75.1294681 L395.535626,75.78488 L395.535626,75.78488 L394.327165,76.3379048 C393.651246,76.6451408 392.258442,77.1367184 391.193358,77.4439544 C390.128273,77.730708 388.182445,78.0993912 386.851089,78.242768 C385.028155,78.4271096 383.799211,78.4271096 381.894348,78.242768 C380.501545,78.0993912 378.473787,77.730708 377.38822,77.423472 C376.302653,77.116236 374.725508,76.501764 373.906212,76.0511512 C373.066434,75.6005384 371.653148,74.555936 370.751922,73.7161576 C369.830214,72.8763792 368.6832,71.5040584 368.150658,70.66428 C367.618115,69.8245016 366.962678,68.3907336 366.655442,67.489508 C366.348206,66.5882824 365.979523,65.0111376 365.836146,64.0075 C365.672287,62.880968 365.631322,61.3038232 365.713252,60.0748792 C365.774699,58.9278648 366.04097,57.2073432 366.286759,56.2446704 C366.532548,55.2819976 367.126538,53.7048528 367.597633,52.74218 C368.068728,51.7795072 368.949471,50.4071864 369.522978,49.6903024 C370.116968,48.9734184 371.284465,47.8673688 372.124243,47.2324144 C372.964022,46.59746 374.377307,45.7986464 375.25805,45.4299632 C376.118311,45.06128 377.613526,44.6311496 378.555717,44.446808 C379.682249,44.241984 381.034087,44.1600544 382.570267,44.2215016 Z M455.549058,43.8937832 L455.549058,54.8723496 C455.549058,60.9146576 455.487611,68.1449448 455.22134,76.0306688 L453.459854,76.5632112 C452.497181,76.8499648 450.551353,77.3005776 449.117585,77.525884 C447.294651,77.8536024 445.553647,77.9764968 443.198171,77.9764968 C441.334273,77.9764968 439.183621,77.8740848 438.40529,77.7511904 C437.626958,77.6078136 436.090778,77.218648 435.005211,76.8704472 C433.837714,76.501764 432.322017,75.78488 431.379826,75.170408 C430.458118,74.5764184 429.18821,73.531816 428.532773,72.814932 C427.897818,72.1185304 426.996593,70.8895864 426.566462,70.1112552 C426.136332,69.332924 425.542342,67.899156 425.255589,66.9569656 C424.825458,65.5846448 424.702564,64.51956 424.600152,62.0411896 C424.538705,60.0543968 424.600152,58.2929104 424.764011,57.3302376 C424.907388,56.4904592 425.276071,55.0771736 425.583307,54.175948 C425.870061,53.2747224 426.54598,51.8409544 427.078522,51.001176 C427.590582,50.1613976 428.696632,48.8300416 429.53641,48.0517104 C430.478601,47.1914496 431.707545,46.3107064 432.711182,45.8191288 C433.612408,45.3889984 434.923282,44.856456 435.660648,44.651632 C436.377532,44.4672904 438.159501,44.241984 439.613751,44.1805368 C441.559579,44.0986072 442.686111,44.1805368 443.894573,44.4263256 C444.816281,44.6311496 446.188602,45.0817624 446.987415,45.4504456 C447.765746,45.7986464 448.441666,46.1058824 448.462148,46.0854 C448.499699,46.0854 448.520039,45.6723383 448.523168,45.1459714 L448.523595,43.8937832 L455.549058,43.8937832 Z M238.1079,43.8937832 L238.107624,57.5516963 L238.107624,57.5516963 L238.10536,58.9775961 C238.089875,65.3886282 238.001392,71.680207 237.780182,76.0306688 L236.018695,76.5632112 C235.056022,76.8499648 233.028265,77.3005776 231.512567,77.5668488 C229.198056,77.9560144 228.153454,77.9969792 224.814822,77.9150496 C221.72198,77.83312 220.472554,77.7102256 219.100233,77.3620248 C218.117078,77.0957536 216.437521,76.4607992 215.351954,75.9282568 C214.204939,75.3547496 212.832618,74.453524 212.054287,73.7776048 C211.337403,73.122168 210.313283,71.9546712 209.821706,71.1968224 C209.309646,70.4184912 208.633726,69.1895472 208.346973,68.4726632 C208.060219,67.7557792 207.630089,66.3220112 207.425265,65.3183736 C207.138511,63.8436408 207.077064,62.7580736 207.158994,60.1772912 C207.261406,57.6989208 207.404782,56.4904592 207.752983,55.2615152 C208.019254,54.3602896 208.633726,52.8855568 209.104822,51.9843312 C209.575917,51.0831056 210.518107,49.7107848 211.214509,48.952936 C211.931393,48.1746048 213.09889,47.1504848 213.815774,46.6589072 C214.532658,46.187812 215.720637,45.5528576 216.458003,45.266104 C217.174887,44.9793504 218.485761,44.5901848 219.366504,44.4263256 C220.247247,44.2624664 221.885839,44.1190896 222.991889,44.1190896 C224.118421,44.1190896 225.716048,44.2829488 226.576309,44.446808 C227.416087,44.6311496 228.747443,45.0817624 229.546257,45.4504456 C230.324588,45.7986464 231.000507,46.1058824 231.02099,46.0854 C231.041472,46.0854 231.082437,45.5938224 231.082437,44.9998328 L231.082437,43.8937832 L238.1079,43.8937832 Z M279.216077,28.3886064 L279.216954,38.7970356 C279.224353,45.2163932 279.284245,45.6267863 279.605242,45.5323752 C279.830549,45.4504456 280.895634,45.163692 281.981201,44.856456 C283.271592,44.5082552 284.828254,44.2829488 286.487329,44.1805368 C288.37171,44.0986072 289.477759,44.1600544 290.870562,44.4263256 C292.058542,44.651632 293.471827,45.1432096 294.721254,45.7576816 C295.806821,46.290224 297.240589,47.1914496 297.916508,47.7854392 C298.571945,48.3589464 299.616547,49.567408 300.210537,50.4686336 C300.825009,51.3698592 301.582858,52.8036272 301.910576,53.6843704 C302.258777,54.5446312 302.688907,56.1627408 302.893731,57.2892728 C303.13952,58.7640056 303.200967,60.0339144 303.119038,62.0411896 C303.05759,63.5364048 302.832284,65.4003032 302.62746,66.1786344 C302.443118,66.9569656 301.951541,68.2883216 301.562375,69.1281 C301.17321,69.9678784 300.394878,71.2582696 299.841854,71.9751536 C299.309311,72.6920376 298.223744,73.7571224 297.445413,74.351112 C296.687564,74.9451016 295.294761,75.7643976 294.393535,76.1740456 C293.49231,76.604176 291.997094,77.1367184 291.095869,77.3825072 C289.682583,77.7716728 288.781358,77.83312 284.725842,77.8536024 C280.895634,77.8740848 279.646207,77.7921552 278.13051,77.4644368 C277.10639,77.2391304 275.40635,76.809 274.38223,76.5222464 C273.35811,76.2354928 272.456885,75.9077744 272.374955,75.8258448 C272.293026,75.7439152 272.190614,65.0521024 272.149649,52.0457784 L272.067719,28.3886064 L279.216077,28.3886064 Z M490.082385,44.7745264 L490.061902,55.7530928 L490.061961,56.6163513 C490.061982,56.7563781 490.06201,56.8944999 490.062044,57.0307467 L490.062886,58.5776158 C490.069112,65.3941585 490.112043,66.7050321 490.380445,67.753731 L490.410073,67.8653272 C490.435497,67.9578861 490.462772,68.0498479 490.492033,68.1449448 C490.758304,68.9642408 491.249882,69.9269136 491.65953,70.4184912 C492.048695,70.869104 492.867991,71.483576 493.482463,71.7703296 C494.076453,72.0570832 495.223467,72.3848016 496.001798,72.4872136 C496.841577,72.610108 498.029556,72.610108 498.869334,72.4872136 C499.647666,72.3848016 500.79468,72.0570832 501.38867,71.7703296 C502.003142,71.483576 502.822438,70.869104 503.211603,70.4184912 C503.621251,69.9269136 504.133311,68.9642408 504.3791,68.1449448 C504.411872,68.0384363 504.442153,67.9358605 504.470132,67.8263527 L504.490688,67.7427524 C504.745669,66.6630514 504.797164,64.7126156 504.807014,52.5764771 L504.807708,51.5970297 C504.807811,51.4302049 504.807906,51.2615743 504.807996,51.0911166 L504.80893,48.3945648 C504.808967,48.2053055 504.809001,48.0141129 504.809031,47.8209659 L504.80923,44.7745264 L504.80923,44.7745264 L511.998553,44.7745264 L511.957588,56.633836 C511.939531,66.5289912 511.921474,68.2260978 511.636782,69.3453194 L511.610567,69.4442061 C511.597096,69.4930797 511.583075,69.5412508 511.568479,69.5894034 L511.538514,69.6858867 L511.538514,69.6858867 L511.506975,69.7835368 L511.506975,69.7835368 C511.261186,70.5004208 510.749126,71.585988 510.359961,72.1799776 C509.970795,72.7944496 509.294876,73.634228 508.823781,74.0848408 C508.373168,74.5354536 507.390013,75.2523376 506.673129,75.682468 C505.956245,76.1125984 504.563442,76.706588 503.600769,77.013824 C502.494719,77.3620248 501.019986,77.628296 499.647666,77.730708 C498.418722,77.7921552 496.452411,77.7921552 495.24395,77.7102256 C493.871629,77.628296 492.376414,77.3620248 491.290846,77.013824 C490.307691,76.706588 488.93537,76.1125984 488.198004,75.682468 C487.48112,75.2523376 486.518447,74.5354536 486.047352,74.0848408 C485.596739,73.634228 484.900338,72.7944496 484.511172,72.1799776 C484.142489,71.585988 483.630429,70.5004208 483.38464,69.7835368 L483.367873,69.7352458 L483.367873,69.7352458 L483.335591,69.6395371 C483.304131,69.5441135 483.275113,69.4489503 483.248316,69.3486957 L483.222251,69.2465458 C482.947722,68.1172425 482.925134,66.1810599 482.87258,56.633836 L482.79065,44.7745264 L490.082385,44.7745264 Z M441.47765,50.69394 C440.699318,50.69394 439.511339,50.8577992 438.855902,51.0216584 C438.179983,51.206 437.155863,51.615648 436.561874,51.9433664 C435.967884,52.2710848 435.107623,52.947004 434.636528,53.459064 C434.165433,53.971124 433.550961,54.8723496 433.243725,55.4868216 C432.936489,56.0808112 432.547323,57.1868608 432.362982,57.9447096 C432.17864,58.682076 432.035263,60.1363264 432.035263,61.1604464 C432.035263,62.1845664 432.17864,63.6388168 432.362982,64.3761832 C432.547323,65.134032 432.895524,66.158152 433.161795,66.670212 C433.428066,67.182272 434.103986,68.0834976 434.65701,68.6570048 C435.210035,69.2509944 436.111261,69.947396 436.643803,70.2136672 C437.196828,70.5004208 438.179983,70.8895864 438.855902,71.073928 C439.613751,71.2992344 440.863178,71.4221288 442.317428,71.4221288 C443.546372,71.4221288 445.287376,71.3197168 446.147637,71.1968224 C447.02838,71.073928 447.868158,70.8895864 447.991053,70.8076568 C448.175394,70.7052448 448.277806,68.0630152 448.339254,61.7339536 L448.400701,52.7831448 C446.188602,51.6566128 444.959658,51.1855176 444.222291,51.001176 C443.505407,50.8168344 442.276463,50.6734576 441.47765,50.69394 Z M221.394262,51.0216584 C220.738825,51.206 219.714705,51.615648 219.120715,51.9433664 C218.526726,52.2710848 217.666465,52.947004 217.19537,53.459064 C216.724274,53.971124 216.08932,54.8723496 215.802566,55.4868216 C215.49533,56.0808112 215.106165,57.1868608 214.921823,57.9447096 C214.737482,58.682076 214.594105,60.0339144 214.594105,60.93514 C214.594105,61.8363656 214.696517,63.1677216 214.819411,63.8846056 C214.962788,64.6014896 215.331471,65.7894688 215.679672,66.5063528 C216.08932,67.3666136 216.744757,68.2473568 217.584535,69.025688 C218.403831,69.7835368 219.366504,70.4184912 220.206282,70.7462096 C221.230402,71.1558576 222.049698,71.278752 224.159386,71.381164 C225.654601,71.4426112 227.538982,71.3606816 228.542619,71.2173048 C229.505292,71.073928 230.406518,70.8895864 230.549894,70.8076568 C230.713754,70.7052448 230.836648,67.8581912 230.93906,61.754436 L231.082437,52.8650744 C229.279986,51.8819192 228.276348,51.4313064 227.661876,51.2264824 C227.067886,51.001176 225.675083,50.796352 224.589516,50.7553872 C223.237678,50.69394 222.23404,50.7758696 221.394262,51.0216584 Z M285.934304,50.69394 C285.094526,50.7144224 283.988476,50.8168344 283.517381,50.9192464 C283.025803,51.0216584 281.899271,51.3698592 280.977563,51.6975776 L279.338971,52.2710848 L279.338971,70.4389736 C282.780014,71.3401992 283.517381,71.4016464 285.81141,71.3401992 C288.064474,71.278752 288.80184,71.17634 289.887407,70.766692 C290.604291,70.4799384 291.607929,69.947396 292.079024,69.5582304 C292.570602,69.1895472 293.267003,68.4931456 293.635686,68.0220504 C294.00437,67.5509552 294.536912,66.5678 294.803183,65.850916 C295.089937,65.134032 295.417655,63.7617112 295.54055,62.7990384 C295.724891,61.4881648 295.724891,60.5869392 295.520067,59.194136 C295.356208,57.9447096 295.008007,56.8181776 294.495947,55.7530928 C294.086299,54.8723496 293.369415,53.7867824 292.918802,53.3361696 C292.46819,52.8855568 291.648894,52.2506024 291.095869,51.9433664 C290.563326,51.615648 289.518724,51.206 288.781358,51.0216584 C288.064474,50.8168344 286.774082,50.6734576 285.934304,50.69394 Z M380.132862,51.001176 C379.477425,51.1855176 378.41234,51.6566128 377.756903,52.0457784 C377.101466,52.434944 376.179758,53.1927928 375.688181,53.7253352 C375.217086,54.27836 374.582131,55.1795856 374.295378,55.7530928 C374.008624,56.3266 373.762835,56.8796248 373.762835,57.0025192 C373.762835,57.1390685 376.270884,57.2198834 380.915419,57.2272705 L389.493318,57.2278256 C389.268012,55.609716 389.063188,54.8109024 388.899329,54.380772 C388.714987,53.971124 388.182445,53.1927928 387.71135,52.6807328 C387.137842,52.0457784 386.441441,51.5951656 385.642627,51.2879296 C384.966708,51.0626232 383.737764,50.8168344 382.897986,50.7553872 C381.91483,50.7144224 380.911193,50.796352 380.132862,51.001176 Z" fill="#1F447E"></path>
    </g>
</svg>

<svg xmlns="http://www.w3.org/2000/svg" viewBox="0 0 511.999 108.557">
  <path fill="#7099a6" d="M44.631 10.057v3.277h9.012V23.37h3.523V13.334h9.238v-3.277h-9.238V0h-3.523V10.057z"/>
  <path fill="#eb912c" d="M10.548 25.111V29.7H24.19v14.85h5.059V29.7h13.846v-4.588H29.249V10.487h-5.06v14.624z"/>
  <path fill="#59879b" d="M67.715 25.111v4.814h13.641v14.624h5.264V29.925h13.641V25.11h-13.64V10.487h-5.265v14.624z"/>
  <path fill="#e8762c" d="M37.155 50.899v6.104h15.178v16.385h6.144V57.003h15.178v-6.104H58.477V34.513h-6.144v16.386z"/>
  <path fill="#5b6591" d="M87.726 51.984v4.158h9.238v10.262h4.608V56.142h9.238v-4.158h-9.238V41.723h-4.608v10.261z"/>
  <path fill="#7099a6" d="M0 52.21v3.482h9.012v9.831h3.523v-9.831l9.238-.328V52.21h-9.238v-9.832H9.012v9.832z"/>
  <path fill="#c72035" d="M10.548 77.751v4.814H24.19v14.624h5.264V82.565h13.641V77.75H29.454V63.127H24.19V77.75z"/>
  <path fill="#1f447e" d="M67.715 77.751v4.588h13.641v14.85h5.264v-14.85h13.641v-4.588h-13.64V63.127h-5.265V77.75z"/>
  <path fill="#5b6591" d="M43.976 94.137v4.158h9.237v10.262h4.609V98.295h9.237v-4.158h-9.237V83.875h-4.609v10.262z"/>
  <path fill="#1f447e" d="M337.263 21.834v62.267h-7.025V21.834zM162.692 30.58v19.868h18.905v6.555h-18.905v21.404h-7.026V57.003h-18.905v-6.555h18.905V30.58zM382.57 44.222c1.27.061 2.888.266 3.626.45.717.184 1.905.615 2.621.963.738.328 1.926 1.044 2.643 1.597.737.553 1.761 1.578 2.294 2.274.532.696 1.29 1.966 1.7 2.806.41.84.942 2.315 1.188 3.277.245.963.532 2.909.758 6.882h-24.293l.144.82c.061.45.327 1.413.532 2.13.226.717.8 1.843 1.25 2.478.45.635 1.126 1.393 1.474 1.66.37.266 1.107.716 1.66 1.003.532.266 1.474.614 2.089.778.614.164 2.253.307 3.728.307 1.454 0 3.543-.143 4.629-.327 1.085-.185 2.621-.553 3.4-.8.778-.245 1.802-.634 2.253-.86.45-.225.921-.43 1.044-.43.138 0 .219 1.146.225 5.9v.655l-1.208.553c-.676.307-2.069.799-3.134 1.106-1.065.287-3.01.655-4.342.799-1.823.184-3.052.184-4.957 0-1.392-.144-3.42-.512-4.506-.82-1.085-.307-2.662-.921-3.482-1.372-.84-.45-2.253-1.495-3.154-2.335-.922-.84-2.069-2.212-2.601-3.052-.533-.84-1.188-2.273-1.496-3.174-.307-.902-.675-2.479-.819-3.482-.164-1.127-.205-2.704-.123-3.933.062-1.147.328-2.868.574-3.83.246-.963.84-2.54 1.31-3.503.472-.962 1.352-2.335 1.926-3.052.594-.717 1.761-1.823 2.601-2.458.84-.635 2.253-1.433 3.134-1.802.86-.369 2.356-.799 3.298-.983 1.126-.205 2.478-.287 4.014-.225zm72.98-.328v10.978c0 6.043-.062 13.273-.329 21.159l-1.761.532c-.963.287-2.909.738-4.342.963-1.823.328-3.564.45-5.92.45-1.864 0-4.014-.102-4.793-.225-.778-.143-2.314-.532-3.4-.88-1.167-.37-2.683-1.086-3.625-1.7-.922-.595-2.192-1.64-2.847-2.356-.635-.696-1.536-1.925-1.967-2.704-.43-.778-1.024-2.212-1.31-3.154-.43-1.372-.553-2.437-.656-4.916-.061-1.987 0-3.748.164-4.71.143-.84.512-2.254.82-3.155.286-.901.962-2.335 1.495-3.175.512-.84 1.618-2.171 2.457-2.95.943-.86 2.172-1.74 3.175-2.232.901-.43 2.212-.963 2.95-1.167.717-.185 2.498-.41 3.953-.471 1.946-.082 3.072 0 4.28.245.922.205 2.295.656 3.093 1.024.779.349 1.455.656 1.475.635.038 0 .058-.413.061-.939v-1.252zm-217.442 0v13.658l-.002 1.426c-.016 6.41-.104 12.702-.326 17.053l-1.761.532c-.963.287-2.99.738-4.506 1.004-2.315.389-3.36.43-6.698.348-3.093-.082-4.342-.205-5.715-.553-.983-.266-2.662-.901-3.748-1.434-1.147-.573-2.52-1.474-3.297-2.15-.717-.656-1.741-1.823-2.233-2.581-.512-.779-1.188-2.007-1.475-2.724-.287-.717-.717-2.151-.921-3.155-.287-1.474-.349-2.56-.267-5.14.103-2.48.246-3.688.594-4.916.267-.902.881-2.376 1.352-3.278.471-.9 1.413-2.273 2.11-3.031.717-.778 1.884-1.803 2.601-2.294.717-.471 1.905-1.106 2.642-1.393a18.695 18.695 0 0 1 2.909-.84c.88-.164 2.52-.307 3.625-.307 1.127 0 2.724.164 3.585.328.84.184 2.17.635 2.97 1.003.778.349 1.454.656 1.474.635.02 0 .062-.491.062-1.085v-1.106zm41.108-15.505v10.408c.008 6.42.068 6.83.39 6.735.225-.082 1.29-.368 2.375-.676 1.29-.348 2.847-.573 4.506-.675 1.885-.082 2.99-.02 4.384.245 1.188.226 2.6.717 3.85 1.332 1.086.532 2.52 1.433 3.196 2.027.655.574 1.7 1.782 2.294 2.684.614.9 1.372 2.335 1.7 3.215.348.86.778 2.479.983 3.605.246 1.475.307 2.745.225 4.752-.061 1.495-.287 3.36-.492 4.138-.184.778-.675 2.11-1.065 2.95-.389.839-1.167 2.13-1.72 2.846-.533.717-1.618 1.782-2.397 2.376-.757.594-2.15 1.413-3.051 1.823-.902.43-2.397.963-3.298 1.209-1.413.389-2.315.45-6.37.47-3.83.021-5.08-.06-6.595-.389a83.562 83.562 0 0 1-3.749-.942c-1.024-.287-1.925-.614-2.007-.696-.082-.082-.184-10.774-.225-23.78l-.082-23.657zm210.866 16.386-.02 10.978v2.825c.007 6.816.05 8.127.318 9.176l.03.111c.025.093.053.185.082.28.266.82.758 1.782 1.168 2.273.389.451 1.208 1.066 1.822 1.352.594.287 1.741.615 2.52.717.84.123 2.028.123 2.867 0 .779-.102 1.926-.43 2.52-.717.614-.286 1.433-.9 1.823-1.352.41-.491.921-1.454 1.167-2.273.033-.107.063-.21.091-.319l.02-.083c.256-1.08.307-3.03.317-15.167v-.979l.001-.506v-2.696l.001-.574v-3.046H512l-.041 11.859c-.019 9.895-.037 11.592-.321 12.711l-.026.1a6.057 6.057 0 0 1-.043.144l-.03.097-.031.098c-.246.716-.758 1.802-1.147 2.396-.39.614-1.065 1.454-1.536 1.905-.45.45-1.434 1.167-2.15 1.597-.718.43-2.11 1.025-3.073 1.332-1.106.348-2.581.614-3.953.717-1.23.061-3.196.061-4.404-.02-1.372-.083-2.868-.349-3.953-.697-.983-.307-2.356-.901-3.093-1.332-.717-.43-1.68-1.147-2.15-1.597-.451-.45-1.148-1.29-1.537-1.905-.369-.594-.88-1.68-1.126-2.396l-.017-.049-.032-.095a5.218 5.218 0 0 1-.088-.291l-.026-.102c-.274-1.13-.297-3.066-.35-12.613l-.081-11.86zm-48.604 5.919c-.779 0-1.967.164-2.622.328-.676.184-1.7.594-2.294.921-.594.328-1.454 1.004-1.925 1.516-.472.512-1.086 1.413-1.393 2.028-.308.594-.697 1.7-.881 2.458-.184.737-.328 2.191-.328 3.215 0 1.025.144 2.479.328 3.216.184.758.533 1.782.799 2.294s.942 1.413 1.495 1.987c.553.594 1.454 1.29 1.987 1.557.553.286 1.536.676 2.212.86.758.225 2.007.348 3.461.348 1.23 0 2.97-.102 3.83-.225.881-.123 1.721-.307 1.844-.39.184-.102.287-2.744.348-9.073l.062-8.95c-2.212-1.127-3.441-1.598-4.179-1.783-.717-.184-1.946-.328-2.744-.307zm-220.084.328c-.655.184-1.68.594-2.273.921-.594.328-1.455 1.004-1.926 1.516-.47.512-1.106 1.413-1.392 2.028-.308.594-.697 1.7-.881 2.458-.185.737-.328 2.089-.328 2.99 0 .901.103 2.233.225 2.95.144.716.512 1.904.86 2.621.41.86 1.066 1.741 1.906 2.52.819.758 1.781 1.392 2.621 1.72 1.024.41 1.844.533 3.953.635 1.496.062 3.38-.02 4.384-.164.962-.143 1.864-.327 2.007-.41.164-.102.287-2.949.39-9.053l.142-8.889c-1.802-.983-2.806-1.434-3.42-1.639-.594-.225-1.987-.43-3.072-.47-1.352-.062-2.356.02-3.196.266zm64.54-.328c-.84.02-1.946.123-2.417.225-.491.103-1.618.45-2.54.779l-1.638.573V70.44c3.441.901 4.178.963 6.472.901 2.253-.061 2.99-.164 4.076-.573.717-.287 1.72-.82 2.192-1.209.492-.368 1.188-1.065 1.557-1.536.368-.471.9-1.454 1.167-2.171.287-.717.615-2.09.738-3.052.184-1.31.184-2.212-.021-3.605a11.191 11.191 0 0 0-1.024-3.44c-.41-.882-1.127-1.967-1.577-2.418-.45-.45-1.27-1.085-1.823-1.393-.533-.327-1.577-.737-2.315-.921-.717-.205-2.007-.349-2.847-.328zm94.199.307c-.656.185-1.72.656-2.376 1.045-.656.389-1.577 1.147-2.069 1.68-.47.552-1.106 1.454-1.393 2.027-.286.574-.532 1.127-.532 1.25 0 .136 2.508.217 7.152.224h8.578c-.225-1.617-.43-2.416-.594-2.846-.184-.41-.717-1.188-1.188-1.7-.573-.635-1.27-1.086-2.068-1.393-.676-.225-1.905-.471-2.745-.533-.983-.04-1.987.041-2.765.246z"/>
</svg>
